X: 77
T: No_39_Song_When_Opening_War_Bundle.krn
N: Derived from No_39_Song_When_Opening_War_Bundle.krn
%%abc-version 2.0
%%abcx-abcm2ps-target-version 5.9.1 (29 Sep 2008)
%%abc-creator hum2abc beta
%%abcx-conversion-date 2019/03/15 08:35:44
%%humdrum-veritas 2665390985
%%humdrum-veritas-data 2018664146
%%linebreak <none>
%%barnumbers 0
L: 1/16
M: 3/4
K: G clef=bass
[K:clef=bass][M:3/4]DDDD D2D2D4 [I:setbarnb 2]| 
CCCC A,2G,2G,4 | 
G,G,G,G, G,2G,2 G,2 z2 ||  
[M:2/4]G,2D2 D2D2 | 
D2D2C4 ||  
[M:3/4]A,CCC A,2A,2 A,2 z2 | 
CCCC A,2G,2G,4 | 
E,E,E,E, D,2D,2D,4 | 
B,,D,D,D, C,2C,2 B,,2 z2 | 
A,,C,C,C, B,,2B,,2 G,,2 z2 | 
B,,B,,B,,B,, G,,2G,,2G,,4 | 
G,,G,,G,,G,, G,,2G,,2G,,4 :|]  



